X:352
T: ES KAM VON EINER NEUSTADT HER
N: E0200
O: Europa, Mitteleuropa, Deutschland, Glogau, Liegnitz
R: erzaehlendes Volks - Lied, Tod, Toten - Sage, Grabesstimme
M: 3/4
L: 1/8
K: F
C | FCFAc2 | BGF2z
F | EFG2c2 | c=Bc2z
A | Bcd3c | Bdc3
B | AGFGBA | AGF2z

@@@ Tune index: 4002
